img/webhero-logo.svg

<svg width="94" height="38" viewBox="0 0 94 38" fill="none" xmlns="http://www.w3.org/2000/svg">
<path d="M22.049 13.6118L17.6887 27.0268H14.3756L11.4434 17.9429L8.41593 27.0268H5.12189L0.742554 13.6118H3.94137L6.94981 23.0407L10.0915 13.6118H12.9476L15.9941 23.1173L19.0977 13.6118H22.049Z" fill="#FFD22E"/>
<path d="M32.835 21.9103C32.835 21.9486 32.816 22.2169 32.7779 22.7152H25.0284C25.1679 23.354 25.498 23.8587 26.0184 24.2292C26.5388 24.5997 27.1863 24.785 27.9606 24.785C28.4938 24.785 28.9634 24.7083 29.3696 24.555C29.7884 24.3889 30.1756 24.1334 30.5311 23.7884L32.1115 25.5132C31.1468 26.6247 29.7377 27.1805 27.8844 27.1805C26.7292 27.1805 25.7073 26.9569 24.8189 26.5098C23.9302 26.0498 23.2448 25.4174 22.7625 24.6125C22.2801 23.8076 22.0389 22.8941 22.0389 21.872C22.0389 20.8627 22.2738 19.9556 22.7435 19.1507C23.2257 18.333 23.8795 17.7006 24.7047 17.2534C25.5425 16.7935 26.4753 16.5635 27.5035 16.5635C28.5063 16.5635 29.4141 16.7807 30.2265 17.215C31.0389 17.6495 31.6734 18.2755 32.1305 19.0932C32.6002 19.8981 32.835 20.8371 32.835 21.9103ZM27.5226 18.8249C26.8499 18.8249 26.2849 19.0165 25.828 19.3998C25.3711 19.7831 25.0918 20.3069 24.9902 20.9713H30.036C29.9344 20.3197 29.6552 19.8022 29.1983 19.419C28.7412 19.0229 28.1827 18.8249 27.5226 18.8249Z" fill="#FFD22E"/>
<path d="M40.868 16.5633C41.8201 16.5633 42.6833 16.7869 43.4575 17.2341C44.2446 17.6685 44.8603 18.2881 45.3046 19.093C45.7487 19.8851 45.971 20.8114 45.971 21.8719C45.971 22.9323 45.7487 23.8649 45.3046 24.6698C44.8603 25.462 44.2446 26.0816 43.4575 26.5288C42.6833 26.9632 41.8201 27.1804 40.868 27.1804C39.459 27.1804 38.3864 26.7332 37.6502 25.8389V27.027H34.8131V12.8071H37.7835V17.809C38.5324 16.9786 39.5606 16.5633 40.868 16.5633ZM40.3539 24.7273C41.1156 24.7273 41.7376 24.4718 42.2199 23.9607C42.7151 23.4369 42.9625 22.7406 42.9625 21.8719C42.9625 21.0031 42.7151 20.3132 42.2199 19.8021C41.7376 19.2783 41.1156 19.0164 40.3539 19.0164C39.5924 19.0164 38.964 19.2783 38.4689 19.8021C37.9867 20.3132 37.7454 21.0031 37.7454 21.8719C37.7454 22.7406 37.9867 23.4369 38.4689 23.9607C38.964 24.4718 39.5924 24.7273 40.3539 24.7273Z" fill="#FFD22E"/>
<path d="M60.392 13.6118V27.0268H57.3073V21.5267H51.2524V27.0268H48.1678V13.6118H51.2524V18.9012H57.3073V13.6118H60.392Z" fill="#FFD22E"/>
<path d="M73.3678 21.9103C73.3678 21.9486 73.3487 22.2169 73.3108 22.7152H65.5611C65.7009 23.354 66.0308 23.8587 66.5514 24.2292C67.0718 24.5997 67.7191 24.785 68.4934 24.785C69.0265 24.785 69.4962 24.7083 69.9024 24.555C70.3214 24.3889 70.7085 24.1334 71.064 23.7884L72.6442 25.5132C71.6795 26.6247 70.2707 27.1805 68.4173 27.1805C67.2622 27.1805 66.2403 26.9569 65.3518 26.5098C64.4632 26.0498 63.7777 25.4174 63.2953 24.6125C62.813 23.8076 62.5719 22.8941 62.5719 21.872C62.5719 20.8627 62.8067 19.9556 63.2764 19.1507C63.7587 18.333 64.4125 17.7006 65.2375 17.2534C66.0752 16.7935 67.0083 16.5635 68.0365 16.5635C69.0393 16.5635 69.9468 16.7807 70.7592 17.215C71.5716 17.6495 72.2064 18.2755 72.6633 19.0932C73.133 19.8981 73.3678 20.8371 73.3678 21.9103ZM68.0555 18.8249C67.3829 18.8249 66.8179 19.0165 66.361 19.3998C65.9039 19.7831 65.6246 20.3069 65.5232 20.9713H70.5688C70.4674 20.3197 70.1881 19.8022 69.7311 19.419C69.2741 19.0229 68.7156 18.8249 68.0555 18.8249Z" fill="#FFD22E"/>
<path d="M78.1852 18.0775C78.5407 17.5792 79.0167 17.2023 79.6133 16.9468C80.2227 16.6912 80.9207 16.5635 81.7078 16.5635V19.3231C81.3778 19.2976 81.1556 19.2848 81.0414 19.2848C80.1909 19.2848 79.5245 19.5276 79.0422 20.013C78.5598 20.4858 78.3186 21.2012 78.3186 22.1594V27.0272H75.3483V16.7168H78.1852V18.0775Z" fill="#FFD22E"/>
<path d="M88.2528 27.1805C87.1737 27.1805 86.2028 26.9569 85.3396 26.5098C84.4891 26.0498 83.8227 25.4174 83.3403 24.6125C82.858 23.8076 82.6167 22.8941 82.6167 21.872C82.6167 20.8499 82.858 19.9364 83.3403 19.1315C83.8227 18.3266 84.4891 17.7006 85.3396 17.2534C86.2028 16.7935 87.1737 16.5635 88.2528 16.5635C89.3317 16.5635 90.2964 16.7935 91.1469 17.2534C91.9975 17.7006 92.6639 18.3266 93.1463 19.1315C93.6286 19.9364 93.8697 20.8499 93.8697 21.872C93.8697 22.8941 93.6286 23.8076 93.1463 24.6125C92.6639 25.4174 91.9975 26.0498 91.1469 26.5098C90.2964 26.9569 89.3317 27.1805 88.2528 27.1805ZM88.2528 24.7275C89.0143 24.7275 89.6365 24.472 90.1188 23.9609C90.6138 23.4371 90.8614 22.7408 90.8614 21.872C90.8614 21.0032 90.6138 20.3133 90.1188 19.8022C89.6365 19.2784 89.0143 19.0165 88.2528 19.0165C87.4911 19.0165 86.8629 19.2784 86.3678 19.8022C85.8728 20.3133 85.6252 21.0032 85.6252 21.872C85.6252 22.7408 85.8728 23.4371 86.3678 23.9609C86.8629 24.472 87.4911 24.7275 88.2528 24.7275Z" fill="#FFD22E"/>
<path d="M60.9062 37.7931C60.333 37.7931 59.7781 37.7054 59.2413 37.5302C58.712 37.3478 58.2947 37.1141 57.9901 36.8294L58.3927 35.9752C58.6828 36.238 59.0528 36.4534 59.5025 36.6213C59.9596 36.782 60.4273 36.8623 60.9062 36.8623C61.5371 36.8623 62.0087 36.7563 62.3205 36.5446C62.6324 36.3257 62.7885 36.0373 62.7885 35.6795C62.7885 35.4168 62.7014 35.2049 62.5273 35.0445C62.3604 34.8765 62.1501 34.7488 61.8962 34.6612C61.6496 34.5735 61.2979 34.475 60.8408 34.3655C60.2678 34.2267 59.8036 34.088 59.4481 33.9492C59.0999 33.8106 58.7989 33.5989 58.545 33.3142C58.2983 33.0222 58.1752 32.6316 58.1752 32.1423C58.1752 31.7335 58.2802 31.3648 58.4907 31.0363C58.7084 30.7078 59.0347 30.4449 59.4699 30.2478C59.905 30.0507 60.4454 29.9521 61.0911 29.9521C61.5407 29.9521 61.9833 30.0106 62.4185 30.1274C62.8537 30.2442 63.2273 30.4121 63.5391 30.6311L63.18 31.5072C62.8609 31.3028 62.5201 31.1495 62.1574 31.0473C61.7946 30.9378 61.4393 30.883 61.0911 30.883C60.4746 30.883 60.0103 30.9962 59.6984 31.2225C59.3938 31.4487 59.2413 31.7408 59.2413 32.0985C59.2413 32.3614 59.3284 32.5768 59.5025 32.7447C59.6767 32.9052 59.8906 33.0331 60.1445 33.128C60.4056 33.2156 60.7575 33.3105 61.1999 33.4127C61.7729 33.5514 62.2334 33.6902 62.5817 33.8288C62.9299 33.9674 63.2273 34.1793 63.4739 34.4641C63.7276 34.7488 63.8546 35.1321 63.8546 35.6139C63.8546 36.0154 63.7459 36.3841 63.5283 36.7199C63.3106 37.0483 62.9806 37.3112 62.5382 37.5083C62.0956 37.6981 61.5516 37.7931 60.9062 37.7931Z" fill="white"/>
<path d="M67.8047 37.7715C67.217 37.7715 66.6913 37.6438 66.2269 37.3882C65.77 37.1326 65.4109 36.7823 65.1498 36.3369C64.8886 35.8842 64.7581 35.3732 64.7581 34.8038C64.7581 34.2343 64.8886 33.7269 65.1498 33.2815C65.4109 32.829 65.77 32.4785 66.2269 32.2302C66.6913 31.9748 67.217 31.8469 67.8047 31.8469C68.327 31.8469 68.7911 31.953 69.1973 32.1646C69.6108 32.3763 69.9298 32.6829 70.1548 33.0844L69.3605 33.5992C69.1792 33.3218 68.9543 33.1138 68.6859 32.9749C68.4175 32.8363 68.1201 32.7669 67.7938 32.7669C67.4166 32.7669 67.0756 32.8509 66.771 33.0188C66.4736 33.1866 66.2378 33.4276 66.0638 33.7415C65.897 34.0481 65.8135 34.4023 65.8135 34.8038C65.8135 35.2125 65.897 35.574 66.0638 35.8879C66.2378 36.1946 66.4736 36.4318 66.771 36.5998C67.0756 36.7678 67.4166 36.8515 67.7938 36.8515C68.1201 36.8515 68.4175 36.7823 68.6859 36.6435C68.9543 36.5049 69.1792 36.2968 69.3605 36.0194L70.1548 36.5231C69.9298 36.9246 69.6108 37.2348 69.1973 37.454C68.7911 37.6657 68.327 37.7715 67.8047 37.7715Z" fill="white"/>
<path d="M74.5126 31.8461C75.2451 31.8461 75.8255 32.0616 76.2534 32.4923C76.6886 32.9158 76.9063 33.54 76.9063 34.365V37.7049H75.8617V34.4854C75.8617 33.9232 75.7275 33.4999 75.4592 33.2152C75.1908 32.9304 74.8063 32.788 74.3057 32.788C73.74 32.788 73.294 32.9559 72.9676 33.2917C72.6411 33.6203 72.4779 34.0949 72.4779 34.7153V37.7049H71.4333V29.5793H72.4779V32.7224C72.6956 32.4449 72.9785 32.2294 73.3265 32.0762C73.682 31.9228 74.0774 31.8461 74.5126 31.8461Z" fill="white"/>
<path d="M81.3412 37.7715C80.7682 37.7715 80.2532 37.6438 79.7963 37.3882C79.3392 37.1326 78.9803 36.7823 78.7191 36.3369C78.4652 35.8842 78.3383 35.3732 78.3383 34.8038C78.3383 34.2343 78.4652 33.7269 78.7191 33.2815C78.9803 32.829 79.3392 32.4785 79.7963 32.2302C80.2532 31.9748 80.7682 31.8469 81.3412 31.8469C81.9142 31.8469 82.4256 31.9748 82.8753 32.2302C83.3324 32.4785 83.6877 32.829 83.9416 33.2815C84.2027 33.7269 84.3333 34.2343 84.3333 34.8038C84.3333 35.3732 84.2027 35.8842 83.9416 36.3369C83.6877 36.7823 83.3324 37.1326 82.8753 37.3882C82.4256 37.6438 81.9142 37.7715 81.3412 37.7715ZM81.3412 36.8515C81.7112 36.8515 82.0412 36.7678 82.3313 36.5998C82.6288 36.4245 82.8608 36.1835 83.0276 35.8769C83.1946 35.563 83.2779 35.2053 83.2779 34.8038C83.2779 34.4023 83.1946 34.0481 83.0276 33.7415C82.8608 33.4276 82.6288 33.1866 82.3313 33.0188C82.0412 32.8509 81.7112 32.7669 81.3412 32.7669C80.9712 32.7669 80.6377 32.8509 80.3403 33.0188C80.0502 33.1866 79.818 33.4276 79.644 33.7415C79.477 34.0481 79.3937 34.4023 79.3937 34.8038C79.3937 35.2053 79.477 35.563 79.644 35.8769C79.818 36.1835 80.0502 36.4245 80.3403 36.5998C80.6377 36.7678 80.9712 36.8515 81.3412 36.8515Z" fill="white"/>
<path d="M88.2452 37.7715C87.672 37.7715 87.1572 37.6438 86.7001 37.3882C86.2432 37.1326 85.8841 36.7823 85.6229 36.3369C85.369 35.8842 85.2421 35.3732 85.2421 34.8038C85.2421 34.2343 85.369 33.7269 85.6229 33.2815C85.8841 32.829 86.2432 32.4785 86.7001 32.2302C87.1572 31.9748 87.672 31.8469 88.2452 31.8469C88.8182 31.8469 89.3296 31.9748 89.7793 32.2302C90.2362 32.4785 90.5917 32.829 90.8456 33.2815C91.1067 33.7269 91.2373 34.2343 91.2373 34.8038C91.2373 35.3732 91.1067 35.8842 90.8456 36.3369C90.5917 36.7823 90.2362 37.1326 89.7793 37.3882C89.3296 37.6438 88.8182 37.7715 88.2452 37.7715ZM88.2452 36.8515C88.615 36.8515 88.9452 36.7678 89.2353 36.5998C89.5326 36.4245 89.7648 36.1835 89.9316 35.8769C90.0984 35.563 90.1819 35.2053 90.1819 34.8038C90.1819 34.4023 90.0984 34.0481 89.9316 33.7415C89.7648 33.4276 89.5326 33.1866 89.2353 33.0188C88.9452 32.8509 88.615 32.7669 88.2452 32.7669C87.8752 32.7669 87.5415 32.8509 87.2441 33.0188C86.954 33.1866 86.7218 33.4276 86.5478 33.7415C86.381 34.0481 86.2975 34.4023 86.2975 34.8038C86.2975 35.2053 86.381 35.563 86.5478 35.8769C86.7218 36.1835 86.954 36.4245 87.2441 36.5998C87.5415 36.7678 87.8752 36.8515 88.2452 36.8515Z" fill="white"/>
<path d="M92.6843 29.5793H93.7289V37.7049H92.6843V29.5793Z" fill="white"/>
<path d="M8.60642 0.151432H5.99133V6.19288H7.3895V4.52717H8.60642C10.2203 4.52717 11.2301 3.69 11.2301 2.34362C11.2301 0.988605 10.2203 0.151432 8.60642 0.151432ZM8.52874 3.38792H7.3895V1.29068H8.52874C9.38317 1.29068 9.81471 1.67906 9.81471 2.34362C9.81471 2.99954 9.38317 3.38792 8.52874 3.38792Z" fill="white"/>
<path d="M16.4751 6.19288H17.9423L15.2409 0.151432H13.86L11.1672 6.19288H12.5999L13.135 4.89829H15.94L16.4751 6.19288ZM13.5838 3.83672L14.5418 1.5237L15.4998 3.83672H13.5838Z" fill="white"/>
<path d="M22.1784 3.0427C22.7135 2.80967 23.0501 2.34362 23.0501 1.75673C23.0501 0.66064 21.8418 0.0219727 20.4437 0.0219727C19.7532 0.0219727 19.0283 0.177324 18.3723 0.513919L18.7952 1.60138C19.3131 1.30794 19.9086 1.16985 20.4178 1.16985C21.0996 1.16985 21.6347 1.42877 21.6347 1.92071C21.6347 2.31772 21.3067 2.56801 20.7371 2.56801H19.3648V3.62095H20.8407C21.4707 3.62095 21.885 3.84535 21.885 4.30277C21.885 4.86376 21.2377 5.1572 20.4437 5.1572C19.8568 5.1572 19.1836 5.00185 18.6312 4.66526L18.1997 5.66641C18.9506 6.09794 19.805 6.29645 20.6077 6.29645C22.0576 6.29645 23.3004 5.64052 23.3004 4.50128C23.3004 3.81946 22.8775 3.28436 22.1784 3.0427Z" fill="white"/>
<path d="M27.0224 0.151432H24.4073V6.19288H25.8055V4.52717H27.0224C28.6363 4.52717 29.6461 3.69 29.6461 2.34362C29.6461 0.988605 28.6363 0.151432 27.0224 0.151432ZM26.9447 3.38792H25.8055V1.29068H26.9447C27.7991 1.29068 28.2307 1.67906 28.2307 2.34362C28.2307 2.99954 27.7991 3.38792 26.9447 3.38792Z" fill="white"/>
<path d="M34.891 6.19288H36.3582L33.6569 0.151432H32.276L29.5832 6.19288H31.0159L31.551 4.89829H34.3559L34.891 6.19288ZM31.9998 3.83672L32.9578 1.5237L33.9158 3.83672H31.9998Z" fill="white"/>
<path d="M37.1594 6.19288H40.0248C41.5783 6.19288 42.4673 5.4938 42.4673 4.28551C42.4673 3.129 41.6819 2.5076 40.2233 2.5076H38.5489V1.26478H42.0357V0.151432H37.1594V6.19288ZM38.5489 5.1572V3.53464H39.9471C40.6807 3.53464 41.0518 3.79356 41.0518 4.32866C41.0518 4.87239 40.6634 5.1572 39.9471 5.1572H38.5489Z" fill="white"/>
<path d="M46.4139 6.29645C48.3126 6.29645 49.7194 4.97596 49.7194 3.17216C49.7194 1.36835 48.3126 0.0478648 46.4139 0.0478648C44.5065 0.0478648 43.1083 1.37698 43.1083 3.17216C43.1083 4.96733 44.5065 6.29645 46.4139 6.29645ZM46.4139 5.10542C45.3351 5.10542 44.5238 4.32003 44.5238 3.17216C44.5238 2.02428 45.3351 1.23889 46.4139 1.23889C47.4927 1.23889 48.304 2.02428 48.304 3.17216C48.304 4.32003 47.4927 5.10542 46.4139 5.10542Z" fill="white"/>
<path d="M55.3296 0.151432H50.0908V1.29068H52.0154V6.19288H53.3963V1.29068H55.3296V0.151432Z" fill="white"/>
<path d="M60.5301 6.19288H61.9973L59.2959 0.151432H57.915L55.2223 6.19288H56.6549L57.19 4.89829H59.995L60.5301 6.19288ZM57.6388 3.83672L58.5968 1.5237L59.5548 3.83672H57.6388Z" fill="white"/>
<path d="M66.9412 0.151432V2.53349H64.1966V0.151432H62.7985V6.19288H64.1966V3.71589H66.9412V6.19288H68.3394V0.151432H66.9412Z" fill="white"/>
<path d="M72.7357 6.29645C74.6344 6.29645 76.0412 4.97596 76.0412 3.17216C76.0412 1.36835 74.6344 0.0478648 72.7357 0.0478648C70.8283 0.0478648 69.4301 1.37698 69.4301 3.17216C69.4301 4.96733 70.8283 6.29645 72.7357 6.29645ZM72.7357 5.10542C71.6568 5.10542 70.8455 4.32003 70.8455 3.17216C70.8455 2.02428 71.6568 1.23889 72.7357 1.23889C73.8145 1.23889 74.6258 2.02428 74.6258 3.17216C74.6258 4.32003 73.8145 5.10542 72.7357 5.10542Z" fill="white"/>
<path d="M83.7484 3.0427C84.2835 2.78378 84.6028 2.32635 84.6028 1.71358C84.6028 0.712424 83.7742 0.151432 82.3761 0.151432H79.5625V6.19288H82.5401C84.0677 6.19288 84.8876 5.54558 84.8876 4.49264C84.8876 3.75904 84.482 3.25846 83.7484 3.0427ZM80.952 1.18711H82.2552C82.8594 1.18711 83.1787 1.44603 83.1787 1.92071C83.1787 2.40403 82.8594 2.65432 82.2552 2.65432H80.952V1.18711ZM82.4883 5.1572H80.952V3.62958H82.4883C83.1356 3.62958 83.4722 3.87124 83.4722 4.38045C83.4722 4.90692 83.1356 5.1572 82.4883 5.1572Z" fill="white"/>
</svg>

<svg width="94" height="38" fill="none" xmlns="http://www.w3.org/2000/svg"><path d="M22.049 13.612l-4.36 13.415h-3.313l-2.933-9.084-3.027 9.084H5.122L.742 13.612h3.2L6.95 23.04l3.141-9.43h2.857l3.046 9.506 3.104-9.505h2.951zM32.835 21.91c0 .039-.019.307-.057.805h-7.75c.14.639.47 1.144.99 1.514.52.37 1.168.556 1.943.556.533 0 1.002-.077 1.409-.23a3.538 3.538 0 001.161-.767l1.58 1.725c-.964 1.112-2.373 1.667-4.227 1.667-1.155 0-2.177-.223-3.065-.67-.889-.46-1.574-1.093-2.056-1.898-.483-.804-.724-1.718-.724-2.74 0-1.01.235-1.916.704-2.721a5.012 5.012 0 011.962-1.898c.838-.46 1.77-.69 2.799-.69 1.002 0 1.91.218 2.723.652a4.663 4.663 0 011.903 1.878c.47.805.705 1.744.705 2.817zm-5.312-3.085c-.673 0-1.238.192-1.695.575-.457.383-.736.907-.838 1.571h5.046c-.102-.651-.38-1.169-.838-1.552-.457-.396-1.015-.594-1.675-.594zM40.868 16.563c.952 0 1.815.224 2.59.671a4.633 4.633 0 011.847 1.859c.444.792.666 1.718.666 2.779 0 1.06-.222 1.993-.666 2.798a4.798 4.798 0 01-1.847 1.859c-.775.434-1.638.651-2.59.651-1.409 0-2.482-.447-3.218-1.341v1.188h-2.837v-14.22h2.97v5.002c.75-.83 1.778-1.246 3.085-1.246zm-.514 8.164c.762 0 1.384-.255 1.866-.766.495-.524.742-1.22.742-2.09 0-.868-.247-1.558-.742-2.069-.482-.524-1.104-.786-1.866-.786s-1.39.262-1.885.786c-.482.511-.724 1.201-.724 2.07 0 .869.242 1.565.724 2.089.495.51 1.123.766 1.885.766zM60.392 13.612v13.415h-3.085v-5.5h-6.055v5.5h-3.084V13.612h3.084v5.29h6.055v-5.29h3.085zM73.368 21.91c0 .039-.02.307-.057.805h-7.75c.14.639.47 1.144.99 1.514.52.37 1.168.556 1.942.556.534 0 1.003-.077 1.41-.23a3.536 3.536 0 001.161-.767l1.58 1.725c-.965 1.112-2.373 1.667-4.227 1.667-1.155 0-2.177-.223-3.065-.67-.889-.46-1.574-1.093-2.057-1.898-.482-.804-.723-1.718-.723-2.74 0-1.01.235-1.916.704-2.721a5.013 5.013 0 011.961-1.898c.838-.46 1.771-.69 2.8-.69 1.002 0 1.91.218 2.722.652a4.662 4.662 0 011.904 1.878c.47.805.705 1.744.705 2.817zm-5.313-3.085c-.672 0-1.237.192-1.694.575-.457.383-.736.907-.838 1.571h5.046c-.102-.651-.38-1.169-.838-1.552-.457-.396-1.015-.594-1.675-.594zM78.185 18.078a3.316 3.316 0 011.428-1.131c.61-.256 1.308-.383 2.095-.383v2.76c-.33-.026-.552-.04-.667-.04-.85 0-1.516.244-1.999.729-.482.473-.723 1.188-.723 2.146v4.868h-2.97v-10.31h2.836v1.36zM88.253 27.18c-1.08 0-2.05-.223-2.913-.67a5.123 5.123 0 01-2-1.898c-.482-.804-.723-1.718-.723-2.74 0-1.022.241-1.936.723-2.74a4.988 4.988 0 012-1.879c.863-.46 1.834-.69 2.913-.69 1.079 0 2.043.23 2.894.69a4.987 4.987 0 012 1.878c.482.805.723 1.719.723 2.741s-.241 1.936-.724 2.74a5.122 5.122 0 01-2 1.898c-.85.447-1.814.67-2.893.67zm0-2.453c.761 0 1.383-.255 1.866-.766.495-.524.742-1.22.742-2.089s-.247-1.559-.742-2.07c-.483-.524-1.105-.785-1.866-.785-.762 0-1.39.261-1.885.785-.495.511-.743 1.201-.743 2.07 0 .869.248 1.565.743 2.089.495.511 1.123.767 1.885.767z" fill="#FFD22E"/><path d="M60.906 37.793a5.332 5.332 0 01-1.665-.263c-.529-.182-.946-.416-1.25-.7l.402-.855c.29.263.66.478 1.11.646.457.161.924.241 1.403.241.631 0 1.103-.106 1.415-.317.311-.22.468-.508.468-.866a.823.823 0 00-.262-.635 1.615 1.615 0 00-.63-.383 10.965 10.965 0 00-1.056-.296 11.188 11.188 0 01-1.393-.416 2.37 2.37 0 01-.903-.635c-.247-.292-.37-.682-.37-1.172 0-.409.105-.777.316-1.106.217-.328.544-.591.979-.788.435-.197.975-.296 1.621-.296a5.1 5.1 0 011.328.175 3.52 3.52 0 011.12.504l-.359.876a3.793 3.793 0 00-1.023-.46 3.679 3.679 0 00-1.066-.164c-.616 0-1.08.113-1.393.34-.304.226-.457.518-.457.876 0 .262.087.478.261.646.175.16.389.288.642.383.262.088.614.182 1.056.285.573.138 1.033.277 1.382.416.348.138.645.35.892.635.254.285.38.668.38 1.15 0 .401-.108.77-.326 1.106-.217.328-.547.591-.99.788-.442.19-.986.285-1.632.285zM67.805 37.772a3.217 3.217 0 01-1.578-.384 2.821 2.821 0 01-1.077-1.051 3.011 3.011 0 01-.392-1.533c0-.57.13-1.077.392-1.523.26-.452.62-.803 1.077-1.05.464-.256.99-.384 1.578-.384.522 0 .986.106 1.392.318.414.211.733.518.958.92l-.794.514a1.78 1.78 0 00-.675-.624 1.915 1.915 0 00-.892-.208c-.377 0-.718.084-1.023.252a1.826 1.826 0 00-.707.723c-.167.306-.25.66-.25 1.062 0 .408.083.77.25 1.084.174.307.41.544.707.712.305.168.646.252 1.023.252.326 0 .624-.07.892-.208.268-.14.493-.347.674-.625l.795.504a2.317 2.317 0 01-.958.931c-.406.212-.87.318-1.392.318zM74.513 31.846c.732 0 1.313.216 1.74.646.436.424.653 1.048.653 1.873v3.34h-1.044v-3.22c0-.562-.134-.985-.403-1.27-.268-.285-.653-.427-1.153-.427-.566 0-1.012.168-1.338.504-.327.328-.49.803-.49 1.423v2.99h-1.045v-8.126h1.045v3.143c.218-.277.5-.493.849-.646.355-.153.75-.23 1.186-.23zM81.341 37.772a3.11 3.11 0 01-1.545-.384 2.82 2.82 0 01-1.077-1.051 3.08 3.08 0 01-.38-1.533c0-.57.126-1.077.38-1.523.261-.452.62-.803 1.077-1.05a3.112 3.112 0 011.545-.384c.573 0 1.085.128 1.534.383.457.248.813.599 1.067 1.052.26.445.391.952.391 1.522 0 .57-.13 1.08-.391 1.533-.254.445-.61.796-1.067 1.051a3.05 3.05 0 01-1.534.384zm0-.92c.37 0 .7-.084.99-.252.298-.175.53-.416.697-.723a2.25 2.25 0 00.25-1.073c0-.402-.083-.756-.25-1.063a1.754 1.754 0 00-.697-.722 1.94 1.94 0 00-.99-.252 2 2 0 00-1 .252c-.29.168-.523.409-.697.723-.167.306-.25.66-.25 1.062 0 .401.083.759.25 1.073.174.306.406.547.696.723.298.168.631.252 1.001.252zM88.245 37.772a3.11 3.11 0 01-1.545-.384 2.822 2.822 0 01-1.077-1.051 3.08 3.08 0 01-.38-1.533c0-.57.126-1.077.38-1.523.261-.452.62-.803 1.077-1.05a3.112 3.112 0 011.545-.384c.573 0 1.085.128 1.534.383a2.65 2.65 0 011.067 1.052c.26.445.391.952.391 1.522 0 .57-.13 1.08-.391 1.533-.254.445-.61.796-1.067 1.051a3.05 3.05 0 01-1.534.384zm0-.92c.37 0 .7-.084.99-.252a1.85 1.85 0 00.697-.723c.166-.314.25-.672.25-1.073 0-.402-.084-.756-.25-1.063a1.755 1.755 0 00-.697-.722 1.94 1.94 0 00-.99-.252 2 2 0 00-1 .252c-.291.168-.523.409-.697.723-.167.306-.25.66-.25 1.062 0 .401.083.759.25 1.073.174.306.406.547.696.723a2 2 0 001.001.252zM92.684 29.58h1.045v8.125h-1.045v-8.126zM8.606.151H5.991v6.042H7.39V4.527h1.216c1.614 0 2.624-.837 2.624-2.183C11.23.989 10.22.15 8.606.15zM8.53 3.388h-1.14V1.29h1.14c.854 0 1.286.388 1.286 1.053 0 .656-.432 1.044-1.286 1.044zM16.475 6.193h1.467L15.241.15H13.86l-2.693 6.042H12.6l.535-1.295h2.805l.535 1.295zm-2.891-2.356l.958-2.313.958 2.313h-1.916zM22.178 3.043c.535-.233.872-.7.872-1.286C23.05.66 21.842.022 20.444.022c-.69 0-1.416.155-2.072.492l.423 1.087a3.388 3.388 0 011.623-.431c.682 0 1.217.259 1.217.75 0 .398-.328.648-.898.648h-1.372v1.053h1.476c.63 0 1.044.224 1.044.682 0 .56-.647.854-1.441.854-.587 0-1.26-.155-1.813-.492L18.2 5.666c.75.432 1.605.63 2.408.63 1.45 0 2.692-.655 2.692-1.795 0-.682-.422-1.217-1.122-1.458zM27.022.151h-2.615v6.042h1.398V4.527h1.217c1.614 0 2.624-.837 2.624-2.183 0-1.355-1.01-2.193-2.624-2.193zm-.077 3.237h-1.14V1.29h1.14c.854 0 1.286.388 1.286 1.053 0 .656-.432 1.044-1.286 1.044zM34.891 6.193h1.467L33.657.15h-1.381l-2.693 6.042h1.433l.535-1.295h2.805l.535 1.295zM32 3.837l.958-2.313.958 2.313H32zM37.16 6.193h2.865c1.553 0 2.442-.7 2.442-1.907 0-1.157-.785-1.778-2.244-1.778H38.55V1.265h3.487V.15h-4.877v6.042zm1.389-1.036V3.535h1.398c.734 0 1.105.259 1.105.794 0 .543-.389.828-1.105.828H38.55zM46.414 6.296c1.899 0 3.305-1.32 3.305-3.124S48.313.048 46.414.048c-1.907 0-3.306 1.329-3.306 3.124 0 1.795 1.399 3.124 3.306 3.124zm0-1.19c-1.079 0-1.89-.786-1.89-1.934s.811-1.933 1.89-1.933c1.079 0 1.89.785 1.89 1.933 0 1.148-.811 1.933-1.89 1.933zM55.33.151h-5.24v1.14h1.925v4.902h1.381V1.29h1.934V.15zM60.53 6.193h1.467L59.296.15h-1.381l-2.693 6.042h1.433l.535-1.295h2.805l.535 1.295zM57.64 3.837l.958-2.313.958 2.313h-1.916zM66.941.151v2.382h-2.744V.151h-1.399v6.042h1.399V3.716h2.744v2.477h1.398V.15h-1.398zM72.736 6.296c1.898 0 3.305-1.32 3.305-3.124S74.634.048 72.736.048c-1.908 0-3.306 1.329-3.306 3.124 0 1.795 1.398 3.124 3.306 3.124zm0-1.19c-1.08 0-1.89-.786-1.89-1.934s.81-1.933 1.89-1.933c1.078 0 1.89.785 1.89 1.933 0 1.148-.812 1.933-1.89 1.933zM83.748 3.043c.535-.26.855-.717.855-1.33 0-1-.829-1.562-2.227-1.562h-2.814v6.042h2.978c1.528 0 2.348-.647 2.348-1.7 0-.734-.406-1.235-1.14-1.45zm-2.796-1.856h1.303c.604 0 .924.259.924.734 0 .483-.32.733-.924.733h-1.303V1.187zm1.536 3.97h-1.536V3.63h1.536c.648 0 .984.241.984.75 0 .527-.336.777-.984.777z" fill="#fff"/></svg>
